X: 1
T:Fight About the Fireside -- Reel
M:C|
L:1/8
R:reel
B:Ryan's Mammoth Collection
N:358
Z:Contributed by Ray Davies,  ray:davies99.freeserve.co.uk
K:C
uc"^Segno"|\
vGcEc Dddc | GcEc GcEc | FcEc DddB | cG"4"AF EccA |
 GcEc Dddc | GcEc GcEc | FcEc DddB | cG"4"AF Ecc H|]
uf|\
v"0"ecgc "4"eddf | "0"ecgc acgc | fage dcd"4"e | \
GAcd {cd}"4"e2(df) |
 "0"ecgc "4"eddf | "0"ecgc acgc | fage dcd"4"e | \
GAcd {cd}"4"e2(dc) "^Segno""_D.S."|]
